X: 38391
T: Star Of Munster, The
R: reel
M: 4/4
K: Adorian
AB|c3A BAGE|A2BA GEDG|EAAB c2B/c/d|eaae gedB|
c3A BAGE|A2BA GEDG|EAAB c2B/c/d|egdB A2AB||
c3A BAGE|A2BA GEDG|EAAB c2B/c/d|eaae gedB|
cA~A2 BG~G2|AE~E2 GEDG|EAAB c2B/c/d|egdB A2Bd|:
eaab agea|~a2ba gede|~g3a gede|geae gedg|
eaab agea|~a2ba gede|~g3e ~a3g|1 abba gedg:|~b3a gedB||

